editor/icons/icon_play_last_scene.svg

<?xml version="1.0" encoding="UTF-8" standalone="no"?>
<svg
   xmlns:dc="http://purl.org/dc/elements/1.1/"
   xmlns:cc="http://creativecommons.org/ns#"
   xmlns:rdf="http://www.w3.org/1999/02/22-rdf-syntax-ns#"
   xmlns:svg="http://www.w3.org/2000/svg"
   xmlns="http://www.w3.org/2000/svg"
   xmlns:sodipodi="http://sodipodi.sourceforge.net/DTD/sodipodi-0.dtd"
   xmlns:inkscape="http://www.inkscape.org/namespaces/inkscape"
   height="16"
   viewBox="0 0 16 16"
   width="16"
   version="1.1"
   id="svg4"
   sodipodi:docname="icon_play_last_scene.svg"
   inkscape:version="0.92.4 (5da689c313, 2019-01-14)">
  <metadata
     id="metadata10">
    <rdf:RDF>
      <cc:Work
         rdf:about="">
        <dc:format>image/svg+xml</dc:format>
        <dc:type
           rdf:resource="http://purl.org/dc/dcmitype/StillImage" />
        <dc:title></dc:title>
      </cc:Work>
    </rdf:RDF>
  </metadata>
  <defs
     id="defs8" />
  <sodipodi:namedview
     pagecolor="#ffffff"
     bordercolor="#666666"
     borderopacity="1"
     objecttolerance="10"
     gridtolerance="10"
     guidetolerance="10"
     inkscape:pageopacity="0"
     inkscape:pageshadow="2"
     inkscape:window-width="1115"
     inkscape:window-height="783"
     id="namedview6"
     showgrid="false"
     inkscape:zoom="14.75"
     inkscape:cx="8.1355932"
     inkscape:cy="5.7627119"
     inkscape:window-x="211"
     inkscape:window-y="111"
     inkscape:window-maximized="0"
     inkscape:current-layer="svg4" />
  <path
     d="M 14.564453 2 L 12.320312 2.328125 L 13.138672 4.2285156 L 14.853516 3.9785156 L 14.564453 2 z M 10.341797 2.6152344 L 8.3632812 2.9042969 L 9.1816406 4.8066406 L 11.160156 4.5175781 L 10.341797 2.6152344 z M 6.3828125 3.1933594 L 4.4042969 3.4824219 L 5.2226562 5.3847656 L 7.2011719 5.0957031 L 6.3828125 3.1933594 z M 2.4257812 3.7714844 L 0.7109375 4.0214844 L 1 6 L 3.2441406 5.671875 L 2.4257812 3.7714844 z M 1 7 L 1 13 C 1 14.1046 1.89543 15 3 15 L 15 15 L 15 7 L 1 7 z M 8.3652344 8.1386719 A 0.54047918 0.54047918 0 0 1 8.7539062 8.2949219 A 0.54047918 0.54047918 0 0 1 8.7539062 9.0585938 L 7.515625 10.298828 L 9.9941406 10.298828 A 0.54047918 0.54047918 0 0 1 10.533203 10.839844 A 0.54047918 0.54047918 0 0 1 9.9941406 11.378906 L 7.515625 11.378906 L 8.7539062 12.619141 A 0.54047918 0.54047918 0 0 1 8.7539062 13.382812 A 0.54047918 0.54047918 0 0 1 7.9902344 13.382812 L 5.828125 11.220703 A 0.54053323 0.54053323 0 0 1 5.828125 10.457031 L 7.9902344 8.2949219 A 0.54047918 0.54047918 0 0 1 8.3652344 8.1386719 z "
     id="path2"
     style="fill:#e0e0e0;fill-opacity:0.99804002" />
</svg>

<?xml version="1.0" encoding="UTF-8" standalone="no"?>
<svg
   xmlns:dc="http://purl.org/dc/elements/1.1/"
   xmlns:cc="http://creativecommons.org/ns#"
   xmlns:rdf="http://www.w3.org/1999/02/22-rdf-syntax-ns#"
   xmlns:svg="http://www.w3.org/2000/svg"
   xmlns="http://www.w3.org/2000/svg"
   xmlns:sodipodi="http://sodipodi.sourceforge.net/DTD/sodipodi-0.dtd"
   xmlns:inkscape="http://www.inkscape.org/namespaces/inkscape"
   height="16"
   viewBox="0 0 16 16"
   width="16"
   version="1.1"
   id="svg4"
   sodipodi:docname="icon_play_last_scene.svg"
   inkscape:version="0.92.4 (5da689c313, 2019-01-14)">
  <metadata
     id="metadata10">
    <rdf:RDF>
      <cc:Work
         rdf:about="">
        <dc:format>image/svg+xml</dc:format>
        <dc:type
           rdf:resource="http://purl.org/dc/dcmitype/StillImage" />
        <dc:title></dc:title>
      </cc:Work>
    </rdf:RDF>
  </metadata>
  <defs
     id="defs8" />
  <sodipodi:namedview
     pagecolor="#ffffff"
     bordercolor="#666666"
     borderopacity="1"
     objecttolerance="10"
     gridtolerance="10"
     guidetolerance="10"
     inkscape:pageopacity="0"
     inkscape:pageshadow="2"
     inkscape:window-width="716"
     inkscape:window-height="480"
     id="namedview6"
     showgrid="false"
     inkscape:zoom="14.75"
     inkscape:cx="8"
     inkscape:cy="8"
     inkscape:window-x="0"
     inkscape:window-y="0"
     inkscape:window-maximized="0"
     inkscape:current-layer="svg4" />
  <path
     d="m14.564 2-2.2441.32812.81836 1.9004 1.7148-.25zm-4.2227.61523-1.9785.28906.81836 1.9023 1.9785-.28906zm-3.959.57812-1.9785.28906.81836 1.9023 1.9785-.28906zm-3.957.57812-1.7148.25.28906 1.9785 2.2441-.32812zm-1.4258 3.2285v6c0 1.1046.89543 2 2 2h12v-8z"
     fill="#e0e0e0"
     id="path2"
     style="fill:#fc9c9c;fill-opacity:1" />
</svg>
